X:182
T:Further up the Dusty End
C:Robin Beech
Z:robin.beech@mcgill.ca
N:For Catherine Lennon
R:reel
M:4/4
L:1/8
K:Gmin
|: G2dB cdBA | GBdB ecdB | Adcd Adcd | efde cBAF |
G2dB cdBA | GBdB ecdB | Adcd Aede |1 AdcB cBAF :|2 A_gfg =gabc' || 
d'be'b d'be'b | d'e'bd' e'bc'd' | c'fd'f c'fd'f | d'e'fa e'fae' |
d'be'b d'be'b | d'e'bd' e'bc'd' | ae'd'a _gd'c'g |1 gba_g =gabc' :|2 gbaf gecA |]
